alecto/img/svg/cap.svg

<svg xmlns="http://www.w3.org/2000/svg" width="66" height="52"><path d="M63.972 15.246L34.639.389A3.62 3.62 0 0033-.001c-.589 0-1.144.14-1.638.39L2.029 15.246A3.72 3.72 0 000 18.571c0 1.454.826 2.714 2.029 3.324l1.638.83V35.8a3.706 3.706 0 00-1.833 3.199c0 2.052 1.641 3.714 3.666 3.714s3.667-1.662 3.667-3.714A3.706 3.706 0 007.334 35.8V24.582l5.5 2.785v11.632c0 7.18 9.028 13 20.166 13s20.167-5.82 20.167-13V27.367l10.805-5.472A3.72 3.72 0 0066 18.571a3.72 3.72 0 00-2.028-3.325zM47.667 38.999c0 3.435-6.406 7.429-14.667 7.429-8.26 0-14.666-3.994-14.666-7.429v-8.847l13.028 6.6a3.6 3.6 0 001.638.39c.589 0 1.144-.139 1.639-.39l13.028-6.6v8.847zM33 31.353L7.763 18.571 33 5.789l25.237 12.782L33 31.353z"/></svg>

<svg 
 xmlns="http://www.w3.org/2000/svg"
 xmlns:xlink="http://www.w3.org/1999/xlink"
 width="66px" height="52px">
<path
 d="M63.972,15.246 L34.639,0.389 C34.144,0.139 33.589,-0.001 33.000,-0.001 C32.411,-0.001 31.856,0.139 31.362,0.389 L2.029,15.246 C0.826,15.855 0.000,17.116 0.000,18.571 C0.000,20.025 0.826,21.285 2.029,21.895 L3.667,22.725 L3.667,35.800 C2.575,36.444 1.834,37.628 1.834,38.999 C1.834,41.051 3.475,42.713 5.500,42.713 C7.525,42.713 9.167,41.051 9.167,38.999 C9.167,37.628 8.426,36.444 7.334,35.800 L7.334,24.582 L12.834,27.367 L12.834,38.999 C12.834,46.179 21.862,51.999 33.000,51.999 C44.138,51.999 53.167,46.179 53.167,38.999 L53.167,27.367 L63.972,21.895 C65.175,21.285 66.000,20.025 66.000,18.571 C66.000,17.116 65.175,15.855 63.972,15.246 ZM47.667,38.999 C47.667,42.434 41.261,46.428 33.000,46.428 C24.740,46.428 18.334,42.434 18.334,38.999 L18.334,30.152 L31.362,36.752 C31.856,37.003 32.411,37.142 33.000,37.142 C33.589,37.142 34.144,37.003 34.639,36.752 L47.667,30.152 L47.667,38.999 ZM33.000,31.353 L7.763,18.571 L33.000,5.789 L58.237,18.571 L33.000,31.353 Z"/>
</svg>
